svgs/duotone/book-blank.svg

<svg xmlns="http://www.w3.org/2000/svg" viewBox="0 0 448 512"><!-- Font Awesome Pro 6.0.0-alpha2 by @fontawesome - https://fontawesome.com License - https://fontawesome.com/license (Commercial License) --><defs><style>.fa-secondary{opacity:.4}</style></defs><path d="M416 384V448H96C78.326 448 64 433.672 64 416C64 398.326 78.326 384 96 384H416Z" class="fa-secondary"/><path d="M96 384H424C437.254 384 448 373.254 448 360V32C448 14.326 433.674 0 416 0H96C42.98 0 0 42.98 0 96V416C0 469.02 42.98 512 96 512H424C437.254 512 448 501.254 448 488V472C448 458.744 437.254 448 424 448H96C78.326 448 64 433.672 64 416C64 398.326 78.326 384 96 384Z" class="fa-primary"/></svg>

<svg xmlns="http://www.w3.org/2000/svg" viewBox="0 0 448 512"><!--! Font Awesome Pro 6.0.0-alpha3 by @fontawesome - https://fontawesome.com License - https://fontawesome.com/license (Commercial License) --><defs><style>.fa-secondary{opacity:.4}</style></defs><path class="fa-primary" d="M96 384h328c13.25 0 24-10.75 24-24V32c0-17.67-14.33-32-32-32H96C42.98 0 0 42.98 0 96v320c0 53.02 42.98 96 96 96h328c13.25 0 24-10.75 24-24v-16c0-13.26-10.75-24-24-24H96c-17.67 0-32-14.33-32-32C64 398.3 78.33 384 96 384z"/><path class="fa-secondary" d="M416 384v64H96c-17.67 0-32-14.33-32-32c0-17.67 14.33-32 32-32H416z"/></svg>
